!!!OTL: IM FLIEDERBUSCH EIN VOEGLEIN SASS
!!!ARE: Europa, Mitteleuropa, Deutschland
!!!SCT: B0432
!!!YEM: Copyright 1995, estate of Helmut Schaffrath.
**kern
*ICvox
*Ivox
*M2/4
*k[f#c#]
*D:
{8a
=1
8a
8dd
8f#
8a
=2
8a
16g
16f#
8g}
{16b
16b
=3
8b
8a
8.b
16a
=4
16a
16g
16f#
16g
8a}
{8a
=5
8a
8f#
8f#
8a
=6
8a
16g
16f#
8g}
{16b
16b
=7
8b
8g
8.ee
16dd
=8
16dd
16cc#
16b
16cc#
8dd
16r}
{16dd
=9
8.dd
16cc#
8b
8g#
=10
8.a
16b
8cc#}
{8cc#
=11
16dd
16cc#
16dd
16cc#
8b
8g#
=12
16a
16g#
16a
16b
8cc#}
{8a
=13
8.g
16g
8f#
8f#
=14
8.a
16a
8g}
{8g
=15
4.dd
8b
=16
4.a
8f#
=17
4a
8g
8g
=18
4g
8r}
==
!!!AGN: Liebes - Lied, Liebes - Lust
!!!ONB: ESAC (Essen Associative Code) Database: BOEHME
!!!AMT: simple duple
!!!AIN: vox
!!!EED: Helmut Schaffrath
!!!EEV: 1.0
*-
